X: 1
T: Molly Rankin's Reel
C: John Morris Rankin
M: C|
L: 1/8
R: reel
B: BSFC Session Tune Book 2016 p.43
S: Barbara McOwen
Z: 2019 John Chambers <jc:trillian.mit.edu>
K: Dmaj
"A"|: dB |\
| "D"Ad d/d/d d2df | "Em"edef "A7"ed B2 | "D"Ad d/d/d "Bm"d2ef | "Em7"afdf "A7"e2dB || "D"Ad d/d/d d2df |
| "Em"edef "A7"edB2 | "D"abaf "Bm"edef | "Em7"defd "A7"e2 "B":: ef | "D"aA A/A/A afef | "D"abaf "A7"edef |
| "D"aA A/A/A "Bm"afef | "Em7"defd "A7"e2fg || "D"aA A/A/A afef | abaf "A7"edef | "G"gefb "/F#"edBe | "Em7"defd "A7"e2 :|

%%sep 1 1 500

